X:443
T:Tribute to the Queen
T:Flower o' the Quern, The
C:James Scott Skinner
D:Pibroch MacKenzie, The Mull Fiddler (1969)
Z:Nigel Gatherer
M:4/4
L:1/8
K:G
D2  | G2 G2 F2 ED | c2 c2 B2 d2 | d2 BA   G2  AB   | A6
D2  | G2 G2 F2 ED | c2 c2 B2 d2 | dcEA    G2  F2   | G6 ||
G2  | c2 c2 c2 de | d3  B d2 ge | d2 BA   G2  AB   | A6
D2  | G2 G2 F2 ED | c2 c2 B2 d2 | dcEA    G2  F2   | G6 ||
G,2 | C2 C2 C2 DE | D3 B, D2 GE | D2 B,A, G,2 A,B, | A,6
D2  | G2 G2 F2 ED | c2 c2 B2 d2 | dcEA  G2 F2 | G6 ||
G2  | c2 c2 c2 de | d3  B d2 ge | d2 BA   G2  AB   | A6
D2  | G2 G2 F2 ED | c2 c2 B2 d2 | dcEA    G2  F2   | G6 ||
